!!!COM:	Du Fay, Guillaume
!!!CDT:	~1397/08/05/-1474/11/27
!!!OPR:	Missa Ecce ancilla domini
!!!ONM:	1
!!!OTL:	Kyrie
!!!AGN:	Mass; Kyrie
!!!SCT:	Duf1003a
!!!SCA:	Duf1003a
!!!voices:	4
!!!voices-OPR:	4
**kern	**text	**kern	**text	**kern	**text	**kern	**text
*staff4	*staff4	*staff3	*staff3	*staff2	*staff2	*staff1	*staff1
*Ivox	*	*Ivox	*	*Ivox	*	*Ivox	*
*I"Tenor2	*	*I"Tenor1	*	*I"Contratenor	*	*I"Cantus	*
*I'T2	*	*I'T1	*	*I'Ct	*	*I'Cn	*
*>[A,B,C]	*>[A,B,C]	*>[A,B,C]	*>[A,B,C]	*>[A,B,C]	*>[A,B,C]	*>[A,B,C]	*>[A,B,C]
*>A	*>A	*>A	*>A	*>A	*>A	*>A	*>A
*clefF4	*	*clefGv2	*	*clefGv2	*	*clefG2	*
*k[b-]	*	*k[]	*	*k[]	*	*k[]	*
*M3/1	*	*M3/1	*	*M3/1	*	*M3/1	*
*met(O)	*	*met(O)	*	*met(O)	*	*met(O)	*
!!section: Kyrie I
!!!OMD: Kyrie I
=1-	=1-	=1-	=1-	=1-	=1-	=1-	=1-
0.r	.	0.r	.	1.G	Ky-	0.g	Ky-
.	.	.	.	2A/	.	.	.
.	.	.	.	1B	.	.	.
=2	=2	=2	=2	=2	=2	=2	=2
0.r	.	0.r	.	1c	.	1e	.
.	.	.	.	0d	.	1.f	.
.	.	.	.	.	.	2e/	.
=3	=3	=3	=3	=3	=3	=3	=3
0.r	.	0.r	.	0c	.	1e	.
.	.	.	.	.	.	1.a	.
.	.	.	.	1c	.	.	.
.	.	.	.	.	.	2g/	.
=4	=4	=4	=4	=4	=4	=4	=4
0.r	.	0.r	.	1B	.	1.g	.
.	.	.	.	0A	-ri-	.	.
.	.	.	.	.	.	2f#i/	.
.	.	.	.	.	.	2f#i/	-ri-
.	.	.	.	.	.	2e/	.
=5	=5	=5	=5	=5	=5	=5	=5
0.GG	Ky-	0.G	Ec-	1.G	-e	1g	-e
.	.	.	.	.	.	1d	.
.	.	.	.	2F/	.	.	.
.	.	.	.	1D	.	1g	e-
=6	=6	=6	=6	=6	=6	=6	=6
0AA	.	0.c	.	1r	.	2e/	-lei-
.	.	.	.	.	.	2f/	.
.	.	.	.	0A	e-	2e/	.
.	.	.	.	.	.	1a	.
2AA/	.	.	.	.	.	.	.
2BB-/	.	.	.	.	.	2g/	.
=7	=7	=7	=7	=7	=7	=7	=7
1.C	.	0.c	-ce	1G	-lei-	2.e/	.
.	.	.	.	.	.	4f/	.
.	.	.	.	1E	.	1g	.
2BB-/	.	.	.	.	.	.	.
1AA	-ri-	.	.	2.F/	.	1c 1a	.
.	.	.	.	4E/	.	.	.
=8	=8	=8	=8	=8	=8	=8	=8
0.GG	-e	0.B	.	1G	.	1d	.
.	.	.	.	1D	.	2r	.
.	.	.	.	.	.	1d	.
.	.	.	.	1G	.	.	.
.	.	.	.	.	.	2e/	.
=9	=9	=9	=9	=9	=9	=9	=9
0D	e-	0A	an-	0F	.	2f/	.
.	.	.	.	.	.	2e/	.
.	.	.	.	.	.	1d	.
1E	.	1G	.	1E	.	1c	.
=10	=10	=10	=10	=10	=10	=10	=10
1F	.	1A	-cil-	1D	-son,	0d	-son,
0G	.	0B	.	1r	.	.	.
.	.	.	.	1r	.	1g	e-
=11	=11	=11	=11	=11	=11	=11	=11
0D	.	0.A	-la	0d	e-	2a/	-lei-
.	.	.	.	.	.	1f	.
.	.	.	.	.	.	2d/	.
2AA/	.	.	.	1c	.	[1e	.
2BB-/	.	.	.	.	.	.	.
=12	=12	=12	=12	=12	=12	=12	=12
0C	.	0G	Do-	1.c	-lei-	2e/]	.
.	.	.	.	.	.	2d/	.
.	.	.	.	.	.	2.e/	.
.	.	.	.	2B\	.	.	.
.	.	.	.	.	.	4f/	.
1D	.	1F	.	1A	.	1d	.
=13	=13	=13	=13	=13	=13	=13	=13
1GG	.	1G	.	1G	.	2r	.
.	.	.	.	.	.	2d/	.
0C	-lei-	0A	.	0E	.	2c/	.
.	.	.	.	.	.	2e/	.
.	.	.	.	.	.	4f/	.
.	.	.	.	.	.	4.e/	.
.	.	.	.	.	.	8d/	.
.	.	.	.	.	.	4c/	.
=14	=14	=14	=14	=14	=14	=14	=14
0.GG	-son.	1G	-mi-	0D	-son.	1B	-son.
.	.	0G	-ni:	.	.	1r	.
.	.	.	.	2D/	Ky	1r	.
.	.	.	.	2E/	.	.	.
=15	=15	=15	=15	=15	=15	=15	=15
0.r	.	0.r	.	1F	.	1A/	Ky-
.	.	.	.	2G/	.	2G/	.
.	.	.	.	2E/	.	1c	.
.	.	.	.	1D	.	.	.
.	.	.	.	.	.	2B/	.
=16	=16	=16	=16	=16	=16	=16	=16
0.r	.	0.r	.	2C/	.	1c	.
.	.	.	.	2E/	.	.	.
.	.	.	.	2D/	.	2d/	.
.	.	.	.	1G	.	2B/	.
.	.	.	.	.	.	1A	.
.	.	.	.	2F/	.	.	.
=17	=17	=17	=17	=17	=17	=17	=17
0.r	.	0.r	.	2G/	.	1G	.
.	.	.	.	2E/	.	.	.
.	.	.	.	2F/	.	2r	.
.	.	.	.	1G	.	2g/	.
.	.	.	.	.	.	2e/	.
.	.	.	.	2A/	.	2f/	.
=18	=18	=18	=18	=18	=18	=18	=18
0.r	.	0.r	.	2G/	.	1g	.
.	.	.	.	2.c\	.	.	.
.	.	.	.	.	.	1e	.
.	.	.	.	4B\	.	.	.
.	.	.	.	2c\	.	.	.
.	.	.	.	1d	.	2f/	.
.	.	.	.	.	.	[2d/	.
=19	=19	=19	=19	=19	=19	=19	=19
0.r	.	0.r	.	2B\	.	2d/]	.
.	.	.	.	2.c\	.	2.a/	.
.	.	.	.	4B\	.	4g/	.
.	.	.	.	2G/	.	1g	.
.	.	.	.	1A	ri-	.	.
.	.	.	.	.	.	2f#i/	-ri-
=20	=20	=20	=20	=20	=20	=20	=20
0.r	.	0.r	.	1G	-e	0g	-e
.	.	.	.	1r	.	.	.
.	.	.	.	1C	e-	1r	.
=21	=21	=21	=21	=21	=21	=21	=21
0.r	.	0.r	.	1E	.	1c	e-
.	.	.	.	0D	.	2d/	.
.	.	.	.	.	.	1f	.
.	.	.	.	.	.	2g/	.
=22	=22	=22	=22	=22	=22	=22	=22
0.r	.	0.r	.	1C	.	1e	.
.	.	.	.	0G	.	1d	.
.	.	.	.	.	.	1g	.
=23	=23	=23	=23	=23	=23	=23	=23
0.r	.	0.r	.	1A	.	2f/	.
.	.	.	.	.	.	1e	.
.	.	.	.	2G/	.	.	.
.	.	.	.	1c	.	2e/	.
.	.	.	.	.	.	2f/	.
.	.	.	.	2B\	.	2d/	.
=24	=24	=24	=24	=24	=24	=24	=24
0.r	.	0.r	.	1c	.	2e/	.
.	.	.	.	.	.	1c	.
.	.	.	.	2A/	.	.	.
.	.	.	.	2B\	.	2G/	.
.	.	.	.	1c	.	2.A/	.
.	.	.	.	.	.	4B/	.
=25	=25	=25	=25	=25	=25	=25	=25
0.r	.	0.r	.	1F	.	1c	.
.	.	.	.	2E/	.	2r	.
.	.	.	.	1D	.	2B/	.
.	.	.	.	.	.	2A/	.
.	.	.	.	2C/	.	[2c/	.
=26	=26	=26	=26	=26	=26	=26	=26
0.r	.	0.r	.	2.F/	.	2c/]	.
.	.	.	.	.	.	2d/	.
.	.	.	.	4E/	.	.	.
.	.	.	.	1C	.	1e	.
.	.	.	.	1F	.	2c/	.
.	.	.	.	.	.	[2f/	.
=27	=27	=27	=27	=27	=27	=27	=27
0.r	.	0.r	.	1A	-lei-	4f/]	.
.	.	.	.	.	.	4e/	.
.	.	.	.	.	.	2f/	.
.	.	.	.	0G	.	2g/	-lei-
.	.	.	.	.	.	2d/	.
.	.	.	.	.	.	2.e/	.
.	.	.	.	.	.	4d/	.
=28	=28	=28	=28	=28	=28	=28	=28
0.r	.	0.r	.	0F	-son,	1f	-son,
.	.	.	.	.	.	1r	.
.	.	.	.	1r	.	[1f	e-
=29	=29	=29	=29	=29	=29	=29	=29
0.r	.	0.r	.	0A	e-	2f/]	.
.	.	.	.	.	.	1e	.
.	.	.	.	.	.	2c/	.
.	.	.	.	1B	.	1d	.
=30	=30	=30	=30	=30	=30	=30	=30
0.r	.	0.r	.	2c\	-lei-	1e	.
.	.	.	.	1A	.	.	.
.	.	.	.	.	.	2c/	.
.	.	.	.	2F/	.	1d	.
.	.	.	.	1G	.	.	.
.	.	.	.	.	.	2e/	.
=31	=31	=31	=31	=31	=31	=31	=31
0.r	.	0.r	.	2A/	.	1c	.
.	.	.	.	1F	.	.	.
.	.	.	.	.	.	2.f/	-lei-
.	.	.	.	2A/	.	.	.
.	.	.	.	.	.	4e/	.
.	.	.	.	2B\	.	2d/	.
.	.	.	.	[2c\	.	2c/	.
=32	=32	=32	=32	=32	=32	=32	=32
0.r	.	0.r	.	2c\]	.	1A	.
.	.	.	.	2F/	.	.	.
.	.	.	.	2G/	.	2G/	.
.	.	.	.	2E/	.	2c/	.
.	.	.	.	1D	.	2d/	.
.	.	.	.	.	.	2f/	.
=33	=33	=33	=33	=33	=33	=33	=33
0.r	.	0.r	.	2C/	.	2e/	.
.	.	.	.	2F/	.	2.d/	.
.	.	.	.	2E/	.	.	.
.	.	.	.	.	.	4c/	.
.	.	.	.	2C/	.	1c	.
.	.	.	.	1D	.	.	.
.	.	.	.	.	.	2B/	.
=34	=34	=34	=34	=34	=34	=34	=34
0.r	.	0.r	.	0.C	-son.	0c	-son.
.	.	.	.	.	.	1r	.
=35	=35	=35	=35	=35	=35	=35	=35
0.GG	Ky-	[0.G	fi-	1r	.	1.B	Ky-
.	.	.	.	0D	Ky-	.	.
.	.	.	.	.	.	2c/	.
.	.	.	.	.	.	1d	.
=36	=36	=36	=36	=36	=36	=36	=36
0C	.	1G]	.	2.E/	.	2c/	.
.	.	.	.	.	.	1e	.
.	.	.	.	4F/	.	.	.
.	.	1E	.	2G/	.	.	.
.	.	.	.	2c\	.	2f/	.
1D	-ri-	1F	.	2A/	-ri-	1d	-ri-
.	.	.	.	2B\	.	.	.
=37	=37	=37	=37	=37	=37	=37	=37
0C	-e	0G	.	0c	-e	2.e/	-e
.	.	.	.	.	.	4f/	.
.	.	.	.	.	.	1g	.
1E	e-	1G	-at	2r	.	1c	.
.	.	.	.	2c\	e-	.	.
=38	=38	=38	=38	=38	=38	=38	=38
2D\	.	2F/	mi-	2B\	.	1r	.
1C	.	2.E/	.	2.A/	.	.	.
.	.	.	.	.	.	1r	.
.	.	4D/	.	4G/	.	.	.
2BB-/	.	2D/	.	1G	.	.	.
1AA	.	2E/	.	.	.	1c	e-
.	.	2C/	.	2F#i/	.	.	.
=39	=39	=39	=39	=39	=39	=39	=39
0GG	.	0D	-hi	1G	.	1B	.
.	.	.	.	1d	.	1G	.
2GG/	.	1r	.	1B	.	[1d	.
2AA/	.	.	.	.	.	.	.
=40	=40	=40	=40	=40	=40	=40	=40
0BB-	-lei-	0D	se-	0G	.	1d]	.
.	.	.	.	.	.	1d	.
[1AA	.	[1E	-cun-	[1A	.	1c	.
=41	=41	=41	=41	=41	=41	=41	=41
1AA]	.	1E]	.	1A]	.	1e	.
0D	.	0F	-dum	1.B	.	1d	.
.	.	.	.	.	.	2r	.
.	.	.	.	2A/	.	2f/	.
=42	=42	=42	=42	=42	=42	=42	=42
1C	.	0.G	ver-	1c	-lei-	2e/	.
.	.	.	.	.	.	1g	.
0BB-	.	.	.	1d	.	.	.
.	.	.	.	.	.	2f/	.
.	.	.	.	1D	.	1d	.
=43	=43	=43	=43	=43	=43	=43	=43
0.AA	.	0.A	-bum	0E	.	1.c	.
.	.	.	.	.	.	2d/	.
.	.	.	.	1E	.	1e	.
=44	=44	=44	=44	=44	=44	=44	=44
0D	.	1A	tu-	2.F/	.	2d/	.
.	.	.	.	.	.	1a	.
.	.	.	.	4G/	.	.	.
.	.	2F/	.	1A	.	.	.
.	.	2G/	.	.	.	2g/	.
1D	.	[1A	.	2D/	.	2f/	.
.	.	.	.	[2F/	.	4e/	.
.	.	.	.	.	.	4d/	.
=45	=45	=45	=45	=45	=45	=45	=45
1AA	.	2A/]	.	2F/]	.	2c/	.
.	.	2c\	.	2E/	.	2.e/	.
1GG	.	2B\	.	1G	-son	.	.
.	.	.	.	.	.	4d/	.
.	.	2G/	.	.	.	1g	.
1D	.	1A	.	1r	.	.	.
.	.	.	.	.	.	2f/	.
=46	=46	=46	=46	=46	=46	=46	=46
1E	.	0.G	.	1C	e-	2g/	-lei-
.	.	.	.	.	.	2.e/	.
1C	.	.	.	1E	.	.	.
.	.	.	.	.	.	4c/	.
.	.	.	.	.	.	2c/	.
1GG	.	.	.	1D	.	2d/	.
.	.	.	.	.	.	2B/	.
=47	=47	=47	=47	=47	=47	=47	=47
0.Cl	-son.	0.Gl	-um.	1.E	-lei-	0.cl	-son.
.	.	.	.	2C/	.	.	.
.	.	.	.	1Cl	-son.	.	.
!!LO:LB:i:g=z
=48||	=48||	=48||	=48||	=48||	=48||	=48||	=48||
*>B	*>B	*>B	*>B	*>B	*>B	*>B	*>B
*clefF4	*	*clefGv2	*	*clefGv2	*	*clefG2	*
*k[b-]	*	*k[]	*	*k[]	*	*k[]	*
*M2/1	*	*M3/1	*	*M2/1	*	*M2/1	*
*met(C|)	*	*met(C|)	*	*met(C|)	*	*met(C|)	*
!!primary-mensuration: met(C|)
!!section: Christe
!!!OMD:	Christe
0r	.	0r	.	[0c	Chri-	0c	Chri-
=49.	=49	=49	=49	=49.	=49	=49.	=49
0r	.	0r	.	0c]	.	0e	.
=50	=50	=50	=50	=50	=50	=50	=50
0r	.	0r	.	0G	.	1d	.
.	.	.	.	.	.	[1g	.
=51.	=51	=51	=51	=51.	=51	=51.	=51
0r	.	0r	.	0c	.	2g/]	.
.	.	.	.	.	.	2f/	.
.	.	.	.	.	.	1e	.
=52	=52	=52	=52	=52	=52	=52	=52
0r	.	0r	.	0B	.	1.d	.
.	.	.	.	.	.	2c/	.
=53.	=53	=53	=53	=53.	=53	=53.	=53
0r	.	0r	.	1A	.	1.c	.
.	.	.	.	1c	.	.	.
.	.	.	.	.	.	4B/	.
.	.	.	.	.	.	4A/	.
=54	=54	=54	=54	=54	=54	=54	=54
0r	.	0r	.	1B	.	1G	.
.	.	.	.	[1G	.	1B	.
=55.	=55	=55	=55	=55.	=55	=55.	=55
0r	.	0r	.	1G]	.	0A	.
.	.	.	.	1F#i	.	.	.
=56	=56	=56	=56	=56	=56	=56	=56
0r	.	0r	.	1G	-ste	0G	-ste
.	.	.	.	1B	.	.	.
=57.	=57	=57	=57	=57.	=57	=57.	=57
0r	.	0r	.	0A	.	1r	.
.	.	.	.	.	.	1c	e-
=58	=58	=58	=58	=58	=58	=58	=58
0r	.	0r	.	0G	.	1d	.
.	.	.	.	.	.	[1e	.
=59.	=59	=59	=59	=59.	=59	=59.	=59
0r	.	0r	.	1C	e-	1e]	.
.	.	.	.	1D	.	1f	.
=60	=60	=60	=60	=60	=60	=60	=60
0r	.	0r	.	1E	.	1g	-lei-
.	.	.	.	1C	.	[1e	.
=61.	=61	=61	=61	=61.	=61	=61.	=61
0r	.	0r	.	1.c	-lei-	1e]	.
.	.	.	.	.	.	2a/	.
.	.	.	.	2B\	.	2g/	.
=62	=62	=62	=62	=62	=62	=62	=62
0r	.	0r	.	1A	.	2f/	.
.	.	.	.	.	.	2e/	.
.	.	.	.	1G	.	[1e	.
=63.	=63	=63	=63	=63.	=63	=63.	=63
0r	.	0r	.	0F	.	1e]	.
.	.	.	.	.	.	1d	.
=64	=64	=64	=64	=64	=64	=64	=64
0r	.	0r	.	0E	-son.	[0e	-son.
=65.	=65	=65	=65	=65.	=65	=65.	=65
0r	.	0r	.	0r	.	0e]	.
=66	=66	=66	=66	=66	=66	=66	=66
[0C	Chri-	0r	.	[0G	Chri-	0r	.
=67.	=67	=67	=67	=67.	=67	=67.	=67
0C]	.	0r	.	1G]	.	0r	.
.	.	.	.	1A	.	.	.
=68	=68	=68	=68	=68	=68	=68	=68
3%4EV	.	0r	.	1G	.	0r	.
.	.	.	.	[1c	.	.	.
3%2FZ	.	.	.	.	.	.	.
=69.	=69	=69	=69	=69.	=69	=69.	=69
0D	.	0r	.	1c]	.	0r	.
.	.	.	.	1B	.	.	.
=70	=70	=70	=70	=70	=70	=70	=70
[0C	-ste	0r	.	1.c	-ste	0r	.
.	.	.	.	2B\	.	.	.
=71.	=71	=71	=71	=71.	=71	=71.	=71
0C]	.	0r	.	2A/	.	0r	.
.	.	.	.	2G/	.	.	.
.	.	.	.	[1G	.	.	.
=72	=72	=72	=72	=72	=72	=72	=72
1GG	e-	0r	.	1G]	.	0r	.
[1C	.	.	.	1G	e-	.	.
=73.	=73	=73	=73	=73.	=73	=73.	=73
1C]	.	0r	.	2A/	-lei-	0r	.
.	.	.	.	2G/	.	.	.
1AA	.	.	.	2F/	.	.	.
.	.	.	.	2E/	.	.	.
=74	=74	=74	=74	=74	=74	=74	=74
1.BBni	-lei-	0r	.	1.D	.	0r	.
2AA/	.	.	.	2C/	.	.	.
=75.	=75	=75	=75	=75.	=75	=75.	=75
[0C	-son,	0r	.	0C	-son,	0r	.
=76	=76	=76	=76	=76	=76	=76	=76
0C]	.	0r	.	1r	.	0r	.
.	.	.	.	1E-	e-	.	.
=77.	=77	=77	=77	=77.	=77	=77.	=77
1GG	e-	0r	.	1D	-lei-	0r	.
1BB-	.	.	.	[1G	.	.	.
=78	=78	=78	=78	=78	=78	=78	=78
0AA	.	0r	.	1G]	.	0r	.
.	.	.	.	1F	.	.	.
=79.	=79	=79	=79	=79.	=79	=79.	=79
0GG	.	0r	.	1G	.	0r	.
.	.	.	.	1B-	.	.	.
=80	=80	=80	=80	=80	=80	=80	=80
0D	.	0r	.	1A	.	0r	.
.	.	.	.	1d	.	.	.
=81.	=81	=81	=81	=81.	=81	=81.	=81
1.E-	-lei-	0r	.	2B-i\	.	0r	.
.	.	.	.	1c	.	.	.
2D\	.	.	.	2B-i\	.	.	.
=82	=82	=82	=82	=82	=82	=82	=82
1C	.	0r	.	2A/	.	0r	.
.	.	.	.	2G/	.	.	.
1BB-	.	.	.	[1G	.	.	.
=83.	=83	=83	=83	=83.	=83	=83.	=83
0AA	.	0r	.	1G]	.	0r	.
.	.	.	.	1F#i	.	.	.
=84	=84	=84	=84	=84	=84	=84	=84
[0GG	-son.	0r	.	0G	-son.	0r	.
=85.	=85	=85	=85	=85.	=85	=85.	=85
0GG]	.	0r	.	0r	.	0r	.
=86	=86	=86	=86	=86	=86	=86	=86
0r	.	0r	.	0G	Chri-	0g	Chri-
=87.	=87	=87	=87	=87.	=87	=87.	=87
0r	.	0r	.	[0c	.	1a	.
.	.	.	.	.	.	[1g	.
=88	=88	=88	=88	=88	=88	=88	=88
0r	.	0r	.	0c]	.	2g/]	.
.	.	.	.	.	.	2f/	.
.	.	.	.	.	.	1e	.
=89.	=89	=89	=89	=89.	=89	=89.	=89
0r	.	0r	.	1.B	.	0d	-ste
.	.	.	.	2A/	.	.	.
=90	=90	=90	=90	=90	=90	=90	=90
0r	.	0r	.	0c	.	1c	.
.	.	.	.	.	.	1e	.
=91.	=91	=91	=91	=91.	=91	=91.	=91
0G	Chri-	0r	.	1d	.	1d	.
.	.	.	.	1B	.	[1g	.
=92	=92	=92	=92	=92	=92	=92	=92
0D	.	0r	.	0A	.	1g]	.
.	.	.	.	.	.	1f#i	.
=93.	=93	=93	=93	=93.	=93	=93.	=93
1E	.	0r	.	0G	-ste	1g	.
1C	.	.	.	.	.	1r	.
=94	=94	=94	=94	=94	=94	=94	=94
2G\	.	0r	.	0C	.	1e	e-
1E	.	.	.	.	.	.	.
.	.	.	.	.	.	1a	.
2F\	.	.	.	.	.	.	.
=95.	=95	=95	=95	=95.	=95	=95.	=95
1G	.	0r	.	1E	e-	1g	.
[1C	.	.	.	1A	.	1e	.
=96	=96	=96	=96	=96	=96	=96	=96
0C_	.	0r	.	1G	.	1r	.
.	.	.	.	1E	.	1g	.
=97.	=97	=97	=97	=97.	=97	=97.	=97
1C]	.	0r	.	1r	.	1a	.
1BBn	.	.	.	1G	.	1b	.
=98	=98	=98	=98	=98	=98	=98	=98
1AA	.	0r	.	1A	.	1cc	-lei-
1GG	.	.	.	1B	.	2b\	.
.	.	.	.	.	.	2g/	.
=99.	=99	=99	=99	=99.	=99	=99.	=99
1C	-ste	0r	.	1c	-lei-	1a	.
1GG	.	.	.	2B\	.	1g	.
.	.	.	.	2G/	.	.	.
=100	=100	=100	=100	=100	=100	=100	=100
1r	.	0r	.	0A	.	2e/	.
.	.	.	.	.	.	1f	.
1D	e-	.	.	.	.	.	.
.	.	.	.	.	.	2g/	.
=101.	=101	=101	=101	=101.	=101	=101.	=101
1.E	-lei-	0r	.	1G	.	1e	.
.	.	.	.	2E/	.	1c	.
[2A\	.	.	.	[2F/	.	.	.
=102	=102	=102	=102	=102	=102	=102	=102
1A]	.	0r	.	2F/]	.	1d	.
.	.	.	.	2G/	.	.	.
1G	.	.	.	1E	.	[1e	.
=103.	=103	=103	=103	=103.	=103	=103.	=103
2E\	.	0r	.	1C	.	1e]	.
2G\	.	.	.	.	.	.	.
2F\	.	.	.	1D	.	1f	.
4E\	.	.	.	.	.	.	.
4D\	.	.	.	.	.	.	.
=104	=104	=104	=104	=104	=104	=104	=104
0C	.	0r	.	1E	.	1g	.
.	.	.	.	1F	.	[1c	.
=105.	=105	=105	=105	=105.	=105	=105.	=105
0F	.	0r	.	0D	.	2c/]	.
.	.	.	.	.	.	2B/	.
.	.	.	.	.	.	2B/	.
.	.	.	.	.	.	2A/	.
=106	=106	=106	=106	=106	=106	=106	=106
0G	-son,	0r	.	[0C	-son,	1c	-son,
.	.	.	.	.	.	1r	.
=107.	=107	=107	=107	=107.	=107	=107.	=107
0E	.	0r	.	0C]	.	1G	e-
.	.	.	.	.	.	[1c	.
=108	=108	=108	=108	=108	=108	=108	=108
1C	e-	0r	.	0E	e-	2c/]	.
.	.	.	.	.	.	2B/	.
1AA	.	.	.	.	.	1c	.
=109.	=109	=109	=109	=109.	=109	=109.	=109
1BB-	-lei-	0r	.	1D	-lei-	1.d	-lei-
1GG	.	.	.	1G	.	.	.
.	.	.	.	.	.	2B/	.
=110	=110	=110	=110	=110	=110	=110	=110
1r	.	0r	.	1A	.	1c	.
1GG	.	.	.	[1G	.	1B	.
=111.	=111	=111	=111	=111.	=111	=111.	=111
0D	.	0r	.	1G]	.	0A	.
.	.	.	.	1F#i	.	.	.
=112	=112	=112	=112	=112	=112	=112	=112
0GGl	-son.	0r	.	0Gl	-son.	0Gl	-son.
!!LO:LB:i:g=z
=113||	=113||	=113||	=113||	=113||	=113||	=113||	=113||
*>C	*>C	*>C	*>C	*>C	*>C	*>C	*>C
*clefF4	*	*clefGv2	*	*clefGv2	*	*clefG2	*
*k[b-]	*	*k[]	*	*k[]	*	*k[]	*
*M3/1	*	*M3/1	*	*M3/1	*	*M3/1	*
*met(O)	*	*met(O)	*	*met(O)	*	*met(O)	*
!!section: Kyrie II
!!!OMD: Kyrie II
[0.C	Ky-	0G	Be-	0c	Ky-	0.e	Ky-
.	.	[1G	-a-	[1c	-ri-	.	.
=114	=114	=114	=114	=114	=114	=114	=114
0C]	.	1G]	.	2c\]	.	0e	-ri-
.	.	.	.	2B\	.	.	.
.	.	1.c	-ta	2A/	.	.	.
.	.	.	.	2G/	.	.	.
1C	-ri-	.	.	1G	.	1e	.
.	.	2B\	.	.	.	.	.
=115	=115	=115	=115	=115	=115	=115	=115
1D	-e	1A	es,	1F	-e	2f/	-e
.	.	.	.	.	.	1d	.
1E	.	1G	.	1E	.	.	.
.	.	.	.	.	.	2c#i/	.
1F	.	1A	.	1D	.	1d	.
=116	=116	=116	=116	=116	=116	=116	=116
2G\	.	0G	Ma-	2E/	.	2r	.
1E	.	.	.	1C	.	1g	e-
2C/	.	.	.	2c\	.	2e/	.
1D	.	1F	.	2A/	.	1f	.
.	.	.	.	2B\	.	.	.
=117	=117	=117	=117	=117	=117	=117	=117
1C	.	1G	-ri-	2c\	.	0e	-lei-
.	.	.	.	2r	.	.	.
1AA	.	2A/	.	1C	e-	.	.
.	.	1A	.	.	.	.	.
1BB-	.	.	.	1D	.	1d	.
.	.	2G/	.	.	.	.	.
=118	=118	=118	=118	=118	=118	=118	=118
0AA	.	0.A	-a,	0E	-lei-	2c/	.
.	.	.	.	.	.	2d/	.
.	.	.	.	.	.	1e	.
1D	e-	.	.	2D/	.	2f/	.
.	.	.	.	2F/	.	2d/	.
=119	=119	=119	=119	=119	=119	=119	=119
1C	-lei-	1r	.	1E	.	1e	-son,
2BB-/	.	1G	que	2D/	.	1r	.
2GG/	.	.	.	1D	.	.	.
1AA	.	1F#i	.	.	.	1r	.
.	.	.	.	2C/	.	.	.
=120	=120	=120	=120	=120	=120	=120	=120
1GG	-son,	1G	cre-	1D	-son,	1.d	e-
0D	.	0A	-di-	1r	.	.	.
.	.	.	.	.	.	1f	.
.	.	.	.	1d	e-	.	.
.	.	.	.	.	.	2g/	.
=121	=121	=121	=121	=121	=121	=121	=121
2r	.	1.A	-di-	2.c\	.	1a	.
1F	e-	.	.	.	.	.	.
.	.	.	.	4B\	.	.	.
.	.	.	.	2A/	.	2d/	.
2E\	.	2c\	.	2G/	.	2e/	.
1D	.	2B\	.	2r	.	1f	.
.	.	2A/	.	2F/	.	.	.
=122	=122	=122	=122	=122	=122	=122	=122
1C	.	1c	.	2G/	.	1e	.
.	.	.	.	2A/	.	.	.
0BB-	.	1.d	.	1.D	.	2d/	.
.	.	.	.	.	.	1f	.
.	.	2c\	.	[2G/	.	2g/	.
=123	=123	=123	=123	=123	=123	=123	=123
2C/	-lei-	1.c	.	1G]	.	1e	.
2E\	.	.	.	.	.	.	.
0D	.	.	.	1A	-lei-	1f	-lei-
.	.	2B\	.	.	.	.	.
.	.	2B\	.	1F	.	1d	.
.	.	2A/	.	.	.	.	.
=124	=124	=124	=124	=124	=124	=124	=124
0C	-son.	0.c	-sti:	0.G	-son.	0e	-son.
2C/	Ky-	.	.	.	.	1r	.
2D\	.	.	.	.	.	.	.
=125	=125	=125	=125	=125	=125	=125	=125
1E	-ri-	0.r	.	0.r	.	1c	Ky-
2.F\	-e,	.	.	.	.	2d/	.
.	.	.	.	.	.	2c/	.
4E\	.	.	.	.	.	.	.
1C	.	.	.	.	.	2e/	-ri-
.	.	.	.	.	.	2f/	.
=126	=126	=126	=126	=126	=126	=126	=126
0.r	.	0.r	.	1C	Ky-	1g	-e
.	.	.	.	2D/	.	2f/	.
.	.	.	.	2C/	.	2.e/	.
.	.	.	.	2E/	-ri-	.	.
.	.	.	.	.	.	4d/	.
.	.	.	.	2F/	.	2c/	.
=127	=127	=127	=127	=127	=127	=127	=127
0.r	.	0.r	.	1G	-e	1B	.
.	.	.	.	2F/	.	2A/	.
.	.	.	.	2.E/	.	2G/	.
.	.	.	.	.	.	2c/	.
.	.	.	.	4D/	.	.	.
.	.	.	.	2C/	.	2e/	.
=128	=128	=128	=128	=128	=128	=128	=128
0.r	.	0.r	.	1BB	.	1d	.
.	.	.	.	1C	.	2e/	.
.	.	.	.	.	.	1c	.
.	.	.	.	2E/	.	.	.
.	.	.	.	[2D/	.	2f/	.
=129	=129	=129	=129	=129	=129	=129	=129
0.r	.	0.r	.	4D/]	.	2e/	.
.	.	.	.	4C/	.	.	.
.	.	.	.	2F/	.	2.d/	.
.	.	.	.	2E/	.	.	.
.	.	.	.	.	.	4c/	.
.	.	.	.	2C/	.	2c/	.
.	.	.	.	1D	.	2A/	.
.	.	.	.	.	.	2B/	.
=130	=130	=130	=130	=130	=130	=130	=130
0.r	.	0.r	.	0C	.	1c	.
.	.	.	.	.	.	1r	.
.	.	.	.	1E	e-	1c	e-
=131	=131	=131	=131	=131	=131	=131	=131
0.r	.	0.r	.	1F	-lei-	1d	.
.	.	.	.	2E/	.	1.e	-lei-
.	.	.	.	1G	.	.	.
.	.	.	.	2F/	.	2d/	.
=132	=132	=132	=132	=132	=132	=132	=132
0.r	.	0.r	.	1D	.	1f	.
.	.	.	.	0C	.	2e/	.
.	.	.	.	.	.	1g	.
.	.	.	.	.	.	2f/	.
=133	=133	=133	=133	=133	=133	=133	=133
0.r	.	0.r	.	1BB	.	1d	.
.	.	.	.	0C	.	1c	.
.	.	.	.	.	.	2r	.
.	.	.	.	.	.	2e/	.
=134	=134	=134	=134	=134	=134	=134	=134
0.r	.	0.r	.	1G	.	2d/	.
.	.	.	.	.	.	1g	.
.	.	.	.	2E/	.	.	.
.	.	.	.	2F/	.	2a/	.
.	.	.	.	1G	.	2b\	.
.	.	.	.	.	.	[2g/	.
=135	=135	=135	=135	=135	=135	=135	=135
0.r	.	0.r	.	1A	.	2g/]	.
.	.	.	.	.	.	2f/	.
.	.	.	.	2G/	.	1g	.
.	.	.	.	2.c\	.	.	.
.	.	.	.	.	.	1e	.
.	.	.	.	4B\	.	.	.
.	.	.	.	2c\	.	.	.
=136	=136	=136	=136	=136	=136	=136	=136
0.r	.	0.r	.	1d	.	2d/	.
.	.	.	.	.	.	2f/	.
.	.	.	.	2c\	.	2e/	.
.	.	.	.	2A/	.	2c/	.
.	.	.	.	2.B\	.	1d	.
.	.	.	.	4A/	.	.	.
=137	=137	=137	=137	=137	=137	=137	=137
0.r	.	0.r	.	1c	-son.	0.c	-son.
.	.	.	.	1r	.	.	.
.	.	.	.	1r	.	.	.
=138	=138	=138	=138	=138	=138	=138	=138
0F	Ky-	0A	Per-	0c	Ky-	1r	.
.	.	.	.	.	.	0f	Ky-
1D	-ri-	1B	-fi-	1d	-ri-	.	.
=139	=139	=139	=139	=139	=139	=139	=139
1C	-e	1c	-ci-	1G	-e	1e	-ri-
0D	.	0A	-en-	0d	.	2d/	.
.	.	.	.	.	.	1a	.
.	.	.	.	.	.	2g/	.
=140	=140	=140	=140	=140	=140	=140	=140
1D	.	1A	-tur	1d	e-	2.f#i/	.
.	.	.	.	.	.	4e/	.
1GG	.	0G	.	1B	.	1.g	-e
1BB-	.	.	.	1G	.	.	.
.	.	.	.	.	.	[2d/	.
=141	=141	=141	=141	=141	=141	=141	=141
1AA	.	1F	in	1A	.	2d/]	.
.	.	.	.	.	.	2.c/	.
1GG	.	2G/	.	[0D	.	.	.
.	.	.	.	.	.	4B/	.
.	.	1G	.	.	.	2G/	.
1r	.	.	.	.	.	1A	.
.	.	2F#i/	.	.	.	.	.
=142	=142	=142	=142	=142	=142	=142	=142
0GG	e-	0G	te	0D]	.	1G	.
.	.	.	.	.	.	1r	.
1C	.	1G	que	2E/	.	1r	.
.	.	.	.	2C/	.	.	.
=143	=143	=143	=143	=143	=143	=143	=143
1BB-	.	1G	di-	1D	.	1d	e-
1AA	.	0A	.	1E	.	2c/	-lei-
.	.	.	.	.	.	2e/	.
[1D	-lei-	.	.	2F/	-lei-	2d/	.
.	.	.	.	2D/	.	[2f/	.
=144	=144	=144	=144	=144	=144	=144	=144
1D]	.	1F	-cta	2F/	.	4f/]	.
.	.	.	.	.	.	4e/	.
.	.	.	.	2G/	.	2d/	.
0AA	.	0E	.	0A	.	2c#i/	.
.	.	.	.	.	.	2d/	.
.	.	.	.	.	.	2e/	.
.	.	.	.	.	.	2c#i/	.
=145	=145	=145	=145	=145	=145	=145	=145
1r	.	0D	sunt	1A	.	1d	.
1r	.	.	.	0A	-son,	2f/	.
.	.	.	.	.	.	2g/	.
1D	.	1F	.	.	.	1a	.
=146	=146	=146	=146	=146	=146	=146	=146
1E	.	1G	ti-	1r	.	1g	.
0F	.	1A	-bi	1r	.	1.f	.
.	.	1A	a	1c	e-	.	.
.	.	.	.	.	.	2e/	.
=147	=147	=147	=147	=147	=147	=147	=147
0C	.	1.G	Do-	0c	-lei-	0e	.
.	.	2G/	-mi-	.	.	.	.
1C	.	1G	-no.	1c	.	1e	.
=148	=148	=148	=148	=148	=148	=148	=148
2D\	.	2F/	e-	2B\	.	2d/	.
1C	.	2.E/	-lei-	2.A/	.	2e/	.
.	.	.	.	.	.	2c/	.
.	.	4D/	.	4G/	.	.	.
2BB-/	.	1D	.	2G/	.	2d/	.
1AA	.	.	.	2A/	.	2r	.
.	.	2C/	.	2F#i/	.	2A/	.
=149	=149	=149	=149	=149	=149	=149	=149
0GG	-son.	0D	-son.	1.G	-son.	2B/	-son.
.	.	.	.	.	.	2c/	.
.	.	.	.	.	.	1d	.
.	.	.	.	2A/	.	.	.
1r	.	1r	.	1B	.	1g	.
=150	=150	=150	=150	=150	=150	=150	=150
0.D;	Ky-	0.F;	Al-	0.A;	Ky-	0.d; 0.f; 0.a;	Ky-
=151	=151	=151	=151	=151	=151	=151	=151
0.D;	-ri-	0.F;	-le-	0.B;	-ri-	0.d; 0.f;	-ri-
=152	=152	=152	=152	=152	=152	=152	=152
0.C;	-e	[0.G;	.	0.c;	-e	0.e;	-e
=153	=153	=153	=153	=153	=153	=153	=153
0.E;	e-	0.G;]	.	0.C;	e-	0.c; 0.g;	e-
=154	=154	=154	=154	=154	=154	=154	=154
0.C;	-lei-	[0.G;	-lu-	0.E;	-lei-	0.c;	-lei-
=155	=155	=155	=155	=155	=155	=155	=155
0.GG;	.	0.G;]	.	0.D;	.	0.B;	.
=156	=156	=156	=156	=156	=156	=156	=156
0.C;l	-son.	0.G;l	-ia.	0.C;l	-son.	0.c;l	-son.
==	==	==	==	==	==	==	==
*-	*-	*-	*-	*-	*-	*-	*-
!!!RDF**kern: l=long note in original notation
!!!RDF**kern: i=editorial accidental
!!!RDF**kern: V=start of tuplet marker
!!!RDF**kern: Z=end of tuplet marker
!!!ENC:	Alejandro Planchart
!!!END:	2014/07/24/
!!!EED:	Alejandro Planchart, Jesse Rodin
!!!EEV:	2014/07/27/
!!!ONB:	Translated from SCORE and edited on 2014/07/27/ by Craig Sapp
!!!SMS: Ed. J. Rodin based on edition by A. Planchart
!!muse2ps: T^@{OPR}^u^@{ONM}{. }@{OTL}^C^@{COM}\n@{SMS}^i2I150v85,85,85,130c150z18
